X: 27689
T: Morgan Rattler
R: jig
M: 6/8
K: Dmajor
|:B|AGF EFG|(F/G/A)F D2B|AGF EFA|B2A Bcd|
AGF EFG|(F/G/A)F D2 f/g/|afd ecA|1 B2A Bcd:|2 B2A B2c
|:d2e fdB|c2d ecA|df e2d|T2e fga
d2e fed|cea ecA|gfd ecA|1 B2A B2c:|2 B2A Bcd||
|:FGF FED|EFE E2D|FGF FED|BcB Bcd|
FGF FED|EFE E2f/g/|afd ecA|TB2A Bcd:|
|:.D2 z/d/ dcd|.E2z/e/ efg|.D2z/d/ dcd|TB2A Bcd|
.D2z/d/ dcd|.E2z/e/ efg|agf edc|TB2A Bcd:|

